newicons/talking_tom.svg

<?xml version="1.0" encoding="UTF-8"?><svg id="b" xmlns="http://www.w3.org/2000/svg" viewBox="0 0 48 48"><defs><style>.ag{fill:none;stroke:#fff;stroke-linecap:round;stroke-linejoin:round;}</style></defs><path id="f" class="ag" d="M10.1119211,21.68675562c-2.64519457-1.65563396-4.23995169-4.43840438-4.39792126-7.91710589-.07650395-1.68471999.19501678-3.50772363-.03376774-4.04855016-.71158777-1.68212923.85092212-1.25209712,1.78194579-.98860958.80288275.22722347,1.82729567-.20410879,3.09213105-.18928532,1.96426533.02301929,3.99112593.59505617,6.2786391-.18675561,1.78373005-1.23831435,4.06885182-1.95434773,7.16704723-1.95434773,3.09819923,0,5.383321.71603337,7.16705104,1.95434773,2.28751413.78181178,4.31437187.20977585,6.2786391.18675561,1.26483633-.01482346,2.28925021.4165088,3.09213248.18928628.93102415-.26348849,2.49353547-.6935206,1.78195199.98860863-.22878881.54082652.04273812,2.36383016-.03377918,4.04855111-.15796814,3.47870055-1.75272859,6.26147098-4.39792126,7.91710493"/><path id="g" class="ag" d="M36.72578784,22.36941713c2.06353293.36224767,3.73646284,1.41596316,4.13366297,3.30301103.98750593,4.69150214-1.38058908,9.49000031-5.44050484,12.24040712-2.82836641,1.91609194-6.97072887,3.68506338-11.41895069,3.68506338-4.44821992,0-8.59057951-1.76897526-11.41894688-3.68506338-4.05991481-2.75040682-6.42800934-7.54890308-5.44050389-12.24040712.39720109-1.88704787,2.07012623-2.94076336,4.13366107-3.30301103"/><path id="h" class="ag" d="M10.0149457,22.59728447c.96702113-3.6405453,1.87170644-6.83193775,3.13318603-9.3894688-.76749674-2.00493256-4.39217788-3.43959484-5.8904685-3.09520592"/><path id="i" class="ag" d="M37.98504964,22.59728447c-.96702017-3.6405453-1.87170549-6.83193775-3.13318413-9.3894688.76749674-2.00493065,4.39217883-3.43959389,5.89047041-3.09520496"/><g id="j"><path id="k" class="ag" d="M7.07016359,26.39428313c1.46711556-1.91704773,5.26902675-2.8016174,7.17485196-.71415326"/><path id="l" class="ag" d="M8.71511779,33.92227501c-1.45588016-5.49969186,1.981898-6.98494184,3.89457692-6.83439497"/></g><g id="m"><path id="n" class="ag" d="M40.92983651,26.39428313c-1.46711461-1.91704773-5.2690258-2.8016174-7.17485387-.71415326"/><path id="o" class="ag" d="M39.28488232,33.92227501c1.45587777-5.49969186-1.98189896-6.98494184-3.89457978-6.83439497"/></g><g id="p"><g id="q"><path id="r" class="ag" d="M21.06090886,19.52976047c.32633559,2.13785629-1.22852743,3.62373011-1.94219611,4.70407442"/><path id="s" class="ag" d="M26.93908934,19.52976047c-.3263375,2.13785629,1.22852743,3.62373011,1.94219611,4.70407442"/><path id="t" class="ag" d="M27.13073554,27.3487024c.98398798-.67448094,2.19481502-1.93220315,2.0453575-2.44408386-.53628696-1.83675874-2.61691171-.03472926-5.17609394-.03472926s-4.63980889-1.80202758-5.17609394.03472735c-.14945752.51188071,1.06137142,1.76960292,2.0453575,2.44408577.61289965.42011832,2.29019075,1.60174866,3.13073644,1.67839761.8405457-.07664704,2.5178387-1.25827929,3.13073644-1.67839761Z"/></g><g id="u"><path id="v" class="ag" d="M32.91329991,21.49264075c.29293987-.49343627.44753505-1.05669354.44753505-1.63055235,0-1.76391773-1.58170169-3.1938554-3.34542483-3.1938554-1.07511317,0-2.29331188.454094-2.72938116,1.4395319"/><path id="w" class="ag" d="M35.32306468,21.77725124c-2.59009593-.2559022-5.15084636-.0661943-7.47804044.30677892-1.75415943-2.12407066-.79732872-6.22569244,2.53262782-6.18449962,4.21664003.05215207,5.36480788,3.25029712,4.94541261,5.8777207Z"/><path id="x" class="ag" d="M31.97193177,17.94897069l-1.04448946.1780876"/></g><g id="y"><path id="z" class="ag" d="M15.08669829,21.49264075c-.29293796-.49343818-.44753314-1.05669545-.44753314-1.63055235,0-1.76391773,1.42977932-3.1938554,3.19350246-3.1938554,1.07511508,0,2.07807214.54102589,2.66861259,1.4395319"/><path id="aa" class="ag" d="M12.67693351,21.77725124c2.59009593-.2559022,5.15084826-.0661943,7.47804044.30677892,1.75415943-2.12407066.79732681-6.22569244-2.53262782-6.18449962-4.21664003.05215207-5.36480598,3.25029712-4.94541261,5.8777207Z"/><path id="ab" class="ag" d="M20.11627269,17.94897069l-1.04448755.1780876"/></g></g><path id="ac" class="ag" d="M31.1862119,30.09793403c-1.19780833,2.22359772-6.55981369,3.01766222-7.1862128,1.28985689-.62639912,1.72780534-5.98840447.93374083-7.1862128-1.28985689"/><g id="ad"><path id="ae" class="ag" d="M15.89465526,11.79998443c.1942446-1.10339222,3.14629822-2.6441243,5.38629904-2.51310931"/><path id="af" class="ag" d="M32.10534294,11.79998443c-.1942427-1.10339222-3.14629822-2.64412335-5.38629904-2.51310931"/></g></svg>

<?xml version="1.0" encoding="UTF-8" standalone="no"?>
<svg
   viewBox="0 0 48 48"
   version="1.1"
   id="svg1"
   sodipodi:docname="talking_tom.svg"
   inkscape:version="1.2.2 (b0a8486541, 2022-12-01)"
   xml:space="preserve"
   xmlns:inkscape="http://www.inkscape.org/namespaces/inkscape"
   xmlns:sodipodi="http://sodipodi.sourceforge.net/DTD/sodipodi-0.dtd"
   xmlns="http://www.w3.org/2000/svg"
   xmlns:svg="http://www.w3.org/2000/svg"><sodipodi:namedview
     id="namedview1"
     pagecolor="#505050"
     bordercolor="#eeeeee"
     borderopacity="1"
     inkscape:showpageshadow="0"
     inkscape:pageopacity="0"
     inkscape:pagecheckerboard="0"
     inkscape:deskcolor="#505050"
     inkscape:zoom="17.8125"
     inkscape:cx="19.873684"
     inkscape:cy="27.340351"
     inkscape:window-width="1918"
     inkscape:window-height="1053"
     inkscape:window-x="0"
     inkscape:window-y="0"
     inkscape:window-maximized="1"
     inkscape:current-layer="svg1"
     showgrid="false" /><defs
     id="defs1"><style
       id="style1">.a { fill:none;stroke:#fff;stroke-linecap:round;stroke-linejoin:round; }
</style></defs><g
     id="g27625"><path
       style="fill:none;stroke:#ffffff;stroke-width:1;stroke-linecap:round;stroke-linejoin:round;stroke-opacity:1;stop-color:#000000"
       d="M 10.115074,21.687279 C 7.4704801,20.03202 5.8760847,17.249881 5.7181511,13.77197 5.6416644,12.087632 5.9131234,10.265042 5.684391,9.7243381 4.9729647,8.0425912 6.5351201,8.4725253 7.4659326,8.7359538 8.2686328,8.9631249 9.2928132,8.5318911 10.557362,8.5467108 c 1.963819,0.023014 3.99022,0.594921 6.277214,-0.1867136 1.783325,-1.2380335 4.067928,-1.9539041 7.165421,-1.9539041 3.097495,0 5.382098,0.7158706 7.165424,1.9539041 2.286994,0.7816346 4.313393,0.209728 6.277214,0.1867136 1.264549,-0.01482 2.28873,0.4164141 3.09143,0.189243 0.930812,-0.2634285 2.492968,-0.6933627 1.781546,0.9883843 -0.228737,0.5407039 0.04273,2.3632939 -0.03377,4.0476319 -0.157933,3.477911 -1.75233,6.26005 -4.396923,7.915309"
       id="path27497" /><path
       style="fill:none;stroke:#ffffff;stroke-width:1;stroke-linecap:round;stroke-linejoin:round;stroke-opacity:1;stop-color:#000000"
       d="m 36.722902,22.369786 c 2.063066,0.362165 3.735613,1.415641 4.132724,3.302261 0.98728,4.690438 -1.380277,9.487847 -5.439271,12.237631 -2.827726,1.915657 -6.969146,3.684229 -11.416358,3.684229 -4.44721,0 -8.58863,-1.768572 -11.416355,-3.684229 C 8.5246478,35.159894 6.1570907,30.362485 7.1443719,25.672047 7.5414828,23.785427 9.2140284,22.731951 11.277095,22.369786"
       id="path27495" /><g
       id="g27574"><path
         style="fill:none;stroke:#ffffff;stroke-width:1;stroke-linecap:round;stroke-linejoin:round;stroke-opacity:1;stop-color:#000000"
         d="m 10.018121,22.5976 c 0.966802,-3.639718 1.871282,-6.830387 3.132475,-9.387338 C 12.383273,11.205786 8.7594151,9.771449 7.261464,10.11576"
         id="path27493" /><path
         style="fill:none;stroke:#ffffff;stroke-width:1;stroke-linecap:round;stroke-linejoin:round;stroke-opacity:1;stop-color:#000000"
         d="m 37.981876,22.5976 c -0.966802,-3.639718 -1.871282,-6.830387 -3.132475,-9.387338 0.767323,-2.004476 4.391181,-3.438813 5.889133,-3.094502"
         id="path27491" /></g><g
       id="g27541"><g
         id="g27529"><path
           style="fill:none;stroke:#ffffff;stroke-width:1;stroke-linecap:round;stroke-linejoin:round;stroke-opacity:1;stop-color:#000000"
           d="m 7.074007,26.393738 c 1.4667822,-1.916612 5.267831,-2.800981 7.173223,-0.713991"
           id="path27483" /><path
           style="fill:none;stroke:#ffffff;stroke-width:1;stroke-linecap:round;stroke-linejoin:round;stroke-opacity:1;stop-color:#000000"
           d="M 8.7185881,33.920021 C 7.263038,28.421577 10.700036,26.936665 12.612281,27.087177"
           id="path27479" /></g><g
         id="g27525"><path
           style="fill:none;stroke:#ffffff;stroke-width:1;stroke-linecap:round;stroke-linejoin:round;stroke-opacity:1;stop-color:#000000"
           d="M 40.925995,26.393738 C 39.459212,24.477126 35.658164,23.592757 33.752771,25.679747"
           id="path27481" /><path
           style="fill:none;stroke:#ffffff;stroke-width:1;stroke-linecap:round;stroke-linejoin:round;stroke-opacity:1;stop-color:#000000"
           d="M 39.281414,33.920021 C 40.736962,28.421577 37.299965,26.936665 35.38772,27.087177"
           id="path27477" /></g></g><g
       id="g27593"><g
         id="g27570"><g
           id="g27546"><path
             style="fill:none;stroke:#ffffff;stroke-width:1;stroke-linecap:round;stroke-linejoin:round;stroke-opacity:1;stop-color:#000000"
             d="m 21.061576,19.530773 c 0.326262,2.13737 -1.228248,3.622908 -1.941756,4.703006"
             id="path27489" /><path
             style="fill:none;stroke:#ffffff;stroke-width:1;stroke-linecap:round;stroke-linejoin:round;stroke-opacity:1;stop-color:#000000"
             d="m 26.938424,19.530773 c -0.326263,2.13737 1.228248,3.622908 1.941755,4.703006"
             id="path27487" /><path
             style="fill:none;stroke:#ffffff;stroke-width:1;stroke-linecap:round;stroke-linejoin:round;stroke-opacity:1;stop-color:#000000"
             d="m 27.130025,27.34794 c 0.983764,-0.674328 2.194317,-1.931765 2.044894,-2.44353 C 28.638754,23.06807 26.558602,24.86969 24,24.86969 c -2.558602,0 -4.638755,-1.801619 -5.17492,0.03472 -0.149423,0.511765 1.06113,1.769202 2.044894,2.443531 0.61276,0.420022 2.289671,1.601386 3.130026,1.678016 0.840355,-0.07663 2.517267,-1.257994 3.130025,-1.678016 z"
             id="path27485" /></g><g
           id="g27551"><path
             style="fill:none;stroke:#ffffff;stroke-width:1;stroke-linecap:round;stroke-linejoin:round;stroke-opacity:1;stop-color:#000000"
             d="m 32.911278,21.493207 c 0.292872,-0.493325 0.447433,-1.056454 0.447433,-1.630182 0,-1.763517 -1.581343,-3.193131 -3.344666,-3.193131 -1.07487,0 -2.292791,0.453991 -2.728761,1.439205"
             id="path27473" /><path
             style="fill:none;stroke:#ffffff;stroke-width:1;stroke-linecap:round;stroke-linejoin:round;stroke-opacity:1;stop-color:#000000"
             d="m 35.320497,21.777754 c -2.589508,-0.255845 -5.149678,-0.06618 -7.476343,0.306709 -1.753762,-2.123588 -0.797147,-6.224279 2.532054,-6.183096 4.215682,0.05214 5.363589,3.24956 4.944289,5.876387 z"
             id="path27471" /><path
             style="fill:none;stroke:#ffffff;stroke-width:1;stroke-linecap:round;stroke-linejoin:round;stroke-opacity:1;stop-color:#000000"
             d="m 31.970124,17.950343 -1.044252,0.178048"
             id="path27467" /></g><g
           id="g27556"><path
             style="fill:none;stroke:#ffffff;stroke-width:1;stroke-linecap:round;stroke-linejoin:round;stroke-opacity:1;stop-color:#000000"
             d="m 15.088722,21.493207 a 3.1927787,3.1931308 0 0 1 -0.447432,-1.630182 3.1927787,3.1931308 0 0 1 3.192777,-3.193131 3.1927787,3.1931308 0 0 1 2.668007,1.439205"
             id="path27475" /><path
             style="fill:none;stroke:#ffffff;stroke-width:1;stroke-linecap:round;stroke-linejoin:round;stroke-opacity:1;stop-color:#000000"
             d="m 12.679504,21.777754 c 2.589508,-0.255845 5.149679,-0.06618 7.476343,0.306709 1.753761,-2.123588 0.797146,-6.224279 -2.532054,-6.183096 -4.215683,0.05214 -5.363589,3.24956 -4.944289,5.876387 z"
             id="path27469" /><path
             style="fill:none;stroke:#ffffff;stroke-width:1;stroke-linecap:round;stroke-linejoin:round;stroke-opacity:1;stop-color:#000000"
             d="m 20.117155,17.950343 -1.044251,0.178048"
             id="path27465" /></g></g><path
         style="fill:none;stroke:#ffffff;stroke-width:1;stroke-linecap:round;stroke-linejoin:round;stroke-opacity:1;stop-color:#000000"
         d="M 31.184582,30.096548 C 29.987045,32.31964 24.626257,33.113527 24,31.386112 23.373743,33.113527 18.012955,32.31964 16.815418,30.096548"
         id="path27463" /><g
         id="g27533"><path
           style="fill:none;stroke:#ffffff;stroke-width:1;stroke-linecap:round;stroke-linejoin:round;stroke-opacity:1;stop-color:#000000"
           d="m 15.896496,11.802752 c 0.1942,-1.103142 3.145584,-2.643524 5.385076,-2.5125393"
           id="path27461" /><path
           style="fill:none;stroke:#ffffff;stroke-width:1;stroke-linecap:round;stroke-linejoin:round;stroke-opacity:1;stop-color:#000000"
           d="M 32.103505,11.802752 C 31.909305,10.69961 28.957921,9.159228 26.718428,9.2902127"
           id="path21856" /></g></g></g></svg>
